X: 06066
T: The MUSKEG WALTZ
C: Bob McQuillen 2 Nov.82
B: Bob's Note Book 6 #66
%R: waltz
Z: 2021 John Chambers <jc:trillian.mit.edu>
M: 3/4
L: 1/4
K: D	% and G
A/B/ \
| AF>F | FD>E | FGA | F2D/B,/ || A,F>F | FEF | G3- | G2B, || A,C>E | GE>F | GG>A | G2A/B/ |
| cd>c | BA>G | FAB | A2F/B/ || AFF/G/ | F/E/DD/E/ | FGA | F2F/E/ || DEF | AFA | B3- | BB>c |
| dB>c | d2c/B/ | cAB | c>BA || GAB | F2E | A2B | cde || dB>c | dcB |cA>B | cBA |
| GAB | F2E | D3- | D2 |]| [K:=c][K:G] E/F/ | GBB | BFG | E>FG | DGA || BGE | D2B | A3- | AAB |
| cA>A | ABG | FGA | A2D || EDE | FGA | G>BG | DB,C || DB>B | BFG | E>FG | DGB |
| dBd | g2f | f3 | edc || BA>B | c>de | dBd | g>ec || B3 | A>GA | G3- | G2 |][K:D]
%%begintext align
%% This past weekend I played a Happy Halloween
%% dance in Lyme, N.H., with the Sherrys and Wayne and Ruth and Bill. This is
%% Muskeg Music country, and they sure were nice to me. They like waltzes
%% pretty well up there, so here is their very own, with many thanks
%% and fondest best wishes always to Dave Millstone and all the rest of
%% the Muskeggers.
%%endtext

%%sep 1 1 500

%%sep 1 1 500

